public/onboarding/backgroundImgGreen.svg

<?xml version="1.0" encoding="UTF-8" standalone="no"?>
<svg
   width="699"
   height="219"
   viewBox="0 0 699 219"
   fill="none"
   version="1.1"
   id="svg31"
   sodipodi:docname="backgroundImgGreen.svg"
   inkscape:version="1.2.2 (b0a84865, 2022-12-01)"
   xmlns:inkscape="http://www.inkscape.org/namespaces/inkscape"
   xmlns:sodipodi="http://sodipodi.sourceforge.net/DTD/sodipodi-0.dtd"
   xmlns="http://www.w3.org/2000/svg"
   xmlns:svg="http://www.w3.org/2000/svg">
  <sodipodi:namedview
     id="namedview33"
     pagecolor="#ffffff"
     bordercolor="#000000"
     borderopacity="0.25"
     inkscape:showpageshadow="2"
     inkscape:pageopacity="0.0"
     inkscape:pagecheckerboard="0"
     inkscape:deskcolor="#d1d1d1"
     showgrid="false"
     inkscape:zoom="2.9385417"
     inkscape:cx="562.18362"
     inkscape:cy="162.15526"
     inkscape:window-width="1728"
     inkscape:window-height="943"
     inkscape:window-x="0"
     inkscape:window-y="38"
     inkscape:window-maximized="0"
     inkscape:current-layer="svg31" />
  <g
     filter="url(#filter0_b_113_989)"
     id="g6"
     transform="matrix(1.0034932,0,0,1.0095729,0.03649386,0.09405878)">
    <path
       d="M 697,83.3411 614,1 H 1 v 216 h 696 z"
       fill="url(#paint0_radial_113_989)"
       fill-opacity="0.9"
       id="path2"
       style="fill:url(#paint0_radial_113_989)" />
    <path
       d="m 697.76,83.3871 -0.26,0.2624 0.26,-0.2624 -5.171,-5.1266 L 614.352,0.64504 614.206,0.5 H 614 613.12 17 1 0.5 v 0.5 216 0.5 h 0.5 696 0.5 v 1.5 h 1 V 85.1625 c 0,-0.6668 -0.266,-1.3059 -0.74,-1.7754 z"
       stroke="url(#paint1_linear_113_989)"
       id="path4"
       style="stroke:url(#paint1_linear_113_989)" />
  </g>
  <defs
     id="defs29">
    <filter
       id="filter0_b_113_989"
       x="-10"
       y="-10"
       width="718.5"
       height="239"
       filterUnits="userSpaceOnUse"
       color-interpolation-filters="sRGB">
      <feFlood
         flood-opacity="0"
         result="BackgroundImageFix"
         id="feFlood8" />
      <feGaussianBlur
         in="BackgroundImageFix"
         stdDeviation="5"
         id="feGaussianBlur10" />
      <feComposite
         in2="SourceAlpha"
         operator="in"
         result="effect1_backgroundBlur_113_989"
         id="feComposite12" />
      <feBlend
         mode="normal"
         in="SourceGraphic"
         in2="effect1_backgroundBlur_113_989"
         result="shape"
         id="feBlend14" />
    </filter>
    <radialGradient
       id="paint0_radial_113_989"
       cx="0"
       cy="0"
       r="1"
       gradientUnits="userSpaceOnUse"
       gradientTransform="matrix(628.012,0,0,4991.82,40.4495,125.139)">
      <stop
         stop-color="#1B312F"
         id="stop17" />
      <stop
         offset="0.501124"
         stop-color="#152B29"
         id="stop19" />
      <stop
         offset="1"
         stop-color="#19322F"
         id="stop21" />
    </radialGradient>
    <linearGradient
       id="paint1_linear_113_989"
       x1="625"
       y1="-41"
       x2="466"
       y2="416"
       gradientUnits="userSpaceOnUse">
      <stop
         offset="0.116793"
         stop-color="#5ED1C5"
         id="stop24" />
      <stop
         offset="0.47481"
         stop-color="#5ED1C5"
         stop-opacity="0"
         id="stop26" />
    </linearGradient>
  </defs>
</svg>

<svg xmlns="http://www.w3.org/2000/svg" width="699" height="219" viewBox="0 0 699 219" fill="none">
    <g filter="url(#filter0_b_113_989)">
        <path d="M697 83.3411L614 1H1V217H697V83.3411Z" fill="url(#paint0_radial_113_989)" fill-opacity="0.9"/>
        <path d="M697.76 83.3871L697.5 83.6495L697.76 83.3871L692.589 78.2605L614.352 0.64504L614.206 0.5H614H613.12H17H1H0.5V1V217V217.5H1H697H697.5V219H698.5V85.1625C698.5 84.4957 698.234 83.8566 697.76 83.3871Z" stroke="url(#paint1_linear_113_989)"/>
    </g>
    <defs>
        <filter id="filter0_b_113_989" x="-10" y="-10" width="718.5" height="239" filterUnits="userSpaceOnUse" color-interpolation-filters="sRGB">
            <feFlood flood-opacity="0" result="BackgroundImageFix"/>
            <feGaussianBlur in="BackgroundImageFix" stdDeviation="5"/>
            <feComposite in2="SourceAlpha" operator="in" result="effect1_backgroundBlur_113_989"/>
            <feBlend mode="normal" in="SourceGraphic" in2="effect1_backgroundBlur_113_989" result="shape"/>
        </filter>
        <radialGradient id="paint0_radial_113_989" cx="0" cy="0" r="1" gradientUnits="userSpaceOnUse" gradientTransform="translate(40.4495 125.139) scale(628.012 4991.82)">
            <stop stop-color="#1B312F"/>
            <stop offset="0.501124" stop-color="#152B29"/>
            <stop offset="1" stop-color="#19322F"/>
        </radialGradient>
        <linearGradient id="paint1_linear_113_989" x1="625" y1="-41" x2="466" y2="416" gradientUnits="userSpaceOnUse">
            <stop offset="0.116793" stop-color="#5ED1C5"/>
            <stop offset="0.47481" stop-color="#5ED1C5" stop-opacity="0"/>
        </linearGradient>
    </defs>
</svg>
